X:0546
M:6/8
L:1/8
Q:3/8=120
K:D
d2e  fdB|c2d ecA|d2e fed|f2e fga |
d2e  fdB|c2d ecA|dcB cBA|B2A Bcd:|

